images/new.svg

<svg width="70" height="70" viewBox="0 0 70 70" fill="none" xmlns="http://www.w3.org/2000/svg">
<mask id="mask0_1810_1708" style="mask-type:alpha" maskUnits="userSpaceOnUse" x="0" y="0" width="70" height="70">
<rect width="70" height="70" fill="#C4C4C4"/>
</mask>
<g mask="url(#mask0_1810_1708)">
<rect x="22.2133" y="-23" width="100" height="30" transform="rotate(45 22.2133 -23)" fill="#EE3643"/>
<path d="M35.9247 14.7692L36.4692 13.1358L36.4197 13.0863L35.4891 14.3336L31.8758 17.9469L30.5889 16.66L37.568 9.68084L38.558 10.6708L37.4888 16.9867L36.9543 18.5706L37.0038 18.6201L37.9046 17.4024L41.5476 13.7594L42.8346 15.0464L35.8554 22.0255L34.8655 21.0356L35.9247 14.7692ZM45.439 17.6508L49.5473 21.7591L48.3395 22.9668L45.5875 20.2147L43.9738 21.8283L46.4784 24.3329L45.2707 25.5407L42.7661 23.0361L41.0733 24.7289L43.8749 27.5305L42.6671 28.7382L38.5093 24.5804L45.439 17.6508ZM49.9563 29.9095L48.8574 31.2657L48.897 31.3053L50.283 30.1966L55.3416 27.5534L56.2326 28.4444L53.5498 33.503L52.4609 34.8691L52.5005 34.9087L53.8963 33.8099L58.5887 30.8004L59.9647 32.1765L51.0749 37.245L50.1642 36.3343L52.7776 31.2459L53.6686 30.0184L53.6191 29.9689L52.3817 30.8697L47.3131 33.4832L46.3529 32.523L51.4313 23.6431L52.9063 25.1181L49.9563 29.9095Z" fill="white"/>
</g>
</svg>

<svg width="70" height="70" fill="none" xmlns="http://www.w3.org/2000/svg"><mask id="a" style="mask-type:alpha" maskUnits="userSpaceOnUse" x="0" y="0" width="70" height="70"><path fill="#C4C4C4" d="M0 0h70v70H0z"/></mask><g mask="url(#a)"><path fill="#EE3643" d="m22.21-23 70.71 70.7-21.21 21.22L1-1.78z"/><path d="m35.92 14.77.55-1.63-.05-.05-.93 1.24-3.61 3.62-1.3-1.29 6.99-6.98.99 1-1.07 6.3-.54 1.6.05.04.9-1.22 3.65-3.64 1.28 1.29-6.97 6.98-1-1 1.06-6.26Zm9.52 2.88 4.1 4.1-1.2 1.22-2.75-2.76-1.62 1.62 2.5 2.5-1.2 1.21-2.5-2.5-1.7 1.69 2.8 2.8-1.2 1.2-4.16-4.15 6.93-6.93Zm4.52 12.26-1.1 1.36.04.04 1.38-1.11 5.06-2.65.9.9-2.69 5.05-1.09 1.37.04.04 1.4-1.1 4.69-3.01 1.37 1.38-8.89 5.06-.9-.9 2.6-5.1.9-1.22-.05-.05-1.24.9-5.07 2.61-.96-.96 5.08-8.88 1.48 1.48-2.95 4.79Z" fill="#fff"/></g></svg>
